X:0084
M:6/8
L:1/8
3/8=120
K:D
a|afa afa|   bgb bgb|afa  agf    |eee ef
g|a3  f3 |   ede fdB|AFA  faf    |ddd d2:|

